X:256
T:'S Ann an Ile
R:Strathspey
M:4/4
L:1/8
K:G
D |\
"G"   G>AB>G       c>A  B>G | "Am" E2 A>G       "D7" F<D D2   |\
"G/B" G>AB>G "C"   c>A  B>G | "D"  E>A G/F/E/D/ "G"  G2 G    :|
z |\
"G"   D>DD<D  "Em" D/D/D D2 | "Am" d>BA>B       "C"  G<E E2   |\
"G/B" D>DD<D  "C"  D/D/D D2 | "D"  d>BA>B       "G"  G2 (3GFE |
"G"   D>DD<D  "Em" D/D/D D2 | "Am" d>BA>B       "C"  G<E E2   |\
"G/B" D>DD<D  "C"  D/D/D D2 | "D"  d>BA>B       "G"  G2 G     |]
